X: 9949
T: Dever The Dancer
R: slip jig
M: 9/8
K: Edorian
|:BEE BEF G2A|BEE BAG FGA|BEE BEF G2A|Bcd ABG FED:|
ded cAF G2A|ded def gfe|ded cAF G2A|Bcd ABG FED|
ded cAF G2A|ded def gfe|afd gfe d2A|Bcd ABG FED||

